X:157
T:The Leitrim
R:polka
M:2/4
L:1/8
K:Dmaj
d2 d>A|Bd A>A|DF Ad|fd e2|
d/e/f/e/ d>A|Bd A>A|Da fd|ed d2:|
fa af/e/|fa fe|fa d>e|fa e2|
fa af/a/|ba fd|Aa fd| ed d2:|

